svg/arrow-top-circle.svg

<svg xmlns="http://www.w3.org/2000/svg" viewBox="0 0 64 64" enable-background="new 0 0 64 64"><style type="text/css">.st0{fill:#333333;}</style><title>arrow-top-circle</title><desc>Created with Sketch.</desc><path class="st0" d="M32 0c-17.7 0-32 14.3-32 32s14.3 32 32 32 32-14.3 32-32-14.3-32-32-32zm0 58c-14.4 0-26-11.6-26-26s11.6-26 26-26 26 11.6 26 26-11.6 26-26 26zM34.1 22.1c-.6-.6-1.3-.9-2.1-.9s-1.5.3-2.1.9l-12.7 12.8c-1.2 1.2-1.2 3.1 0 4.2 1.2 1.2 3.1 1.2 4.2 0l10.6-10.6 10.6 10.6c1.2 1.2 3.1 1.2 4.2 0 1.2-1.2 1.2-3.1 0-4.2l-12.7-12.8z"/></svg>

<svg xmlns="http://www.w3.org/2000/svg" viewBox="0 0 64 64"><path d="M32 0C14.3 0 0 14.3 0 32s14.3 32 32 32 32-14.3 32-32S49.7 0 32 0zm0 58C17.6 58 6 46.4 6 32S17.6 6 32 6s26 11.6 26 26-11.6 26-26 26zm2.1-35.9c-.6-.6-1.3-.9-2.1-.9s-1.5.3-2.1.9L17.2 34.9c-1.2 1.2-1.2 3.1 0 4.2 1.2 1.2 3.1 1.2 4.2 0L32 28.5l10.6 10.6c1.2 1.2 3.1 1.2 4.2 0 1.2-1.2 1.2-3.1 0-4.2L34.1 22.1z" fill="#333"/></svg>
